X:6997
T:the Lancaster Hornpipe
O:england
M:4/4
A:North-West
R:Hornpipe
K:F
cB|\
Acf2 f2ed| efga g2fe| fgaf bagf| gec2 cdcB| \
Acf2 f2ed| efga g2fg| afge fdcB| A2F2 F2::\
(3cde|\
fcAc FAfa| (3gaf (3efd c2ba| gec[BG] [AF][cA]fa| gfed c2fe|\
dB (3BBB bagf| gfed c2(3ccc| dBcA BGcB| A2F2 F2:|


